Yaru++/mimetypes/16/text-less.svg

<svg height="16" viewBox="0 0 4.233125 4.233125" width="16" xmlns="http://www.w3.org/2000/svg" xmlns:xlink="http://www.w3.org/1999/xlink"><linearGradient id="a" gradientUnits="userSpaceOnUse" x1="2.116711" x2="2.116711" y1=".26457" y2="3.968555"><stop offset="0" stop-color="#fff"/><stop offset=".125" stop-color="#fff" stop-opacity=".098039"/><stop offset=".92500001" stop-color="#fff" stop-opacity=".098039"/><stop offset="1" stop-color="#fff" stop-opacity=".498039"/></linearGradient><linearGradient id="b" gradientTransform="matrix(0 -.00953618 .00953591 0 -.942985 4.473643)" gradientUnits="userSpaceOnUse" x1="459.03448" x2="35.310345" y1="419.23337" y2="207.36522"><stop offset="0" stop-color="#f2f2f2"/><stop offset="1" stop-color="#f9f9f9"/></linearGradient><path d="m1.3483185.26457027c-.1902366 0-.3444308.00368-.48573255.027388-.14130436.0237323-.28264046.0730958-.39065659.180858-.10801348.1077595-.15783472.2495506-.18137354.3911698-.02354675.14162183-.02677187.29644573-.02584852.48728563v.7652908 1.0314115c-.00079371.1900038.002381.3445631.0258485.4857352.0235468.1416192.0733574.2834104.18137354.3911699.10801613.1077621.24935223.1571389.39065659.1808576.14130177.023732.29549597.027388.48573257.027388h1.5367831c.1902367 0 .3440949-.00362.4852167-.027388.1411245-.0237584.2824765-.0735294.3901381-.1813736.1076616-.1078441.1571653-.249413.1808576-.3906539.0236949-.1412435.0273883-.2951308.0273883-.4857352v-1.0314115-.7937109l-1.0582812-1.05828133z" opacity=".1"/><path d="m1.3485196.26457027c-.74283142 0-.82275812.076299-.81911762.82063363v1.0313586 1.0313586c-.003651.7443342.0762862.8206336.81911762.8206336h1.5364921c.7428341 0 .8191203-.076289.8191203-.8206336v-1.0313586-1.0582813l-.7937109-.79371093z" fill="none" opacity=".2" stroke="#000" stroke-width=".529141"/><path d="m1.3485196.26457027c-.74283142 0-.82275812.076299-.81911762.82063363v1.0313586 1.0313586c-.003651.7443342.0762862.8206336.81911762.8206336h1.5364921c.7428341 0 .8191203-.076289.8191203-.8206336v-1.0313586-1.0582813l-.7937109-.79371093z" fill="url(#b)"/><path d="m1.572653 3.645308c-.1214193-.0264041-.1892022-.0735612-.2279327-.1586126-.0181759-.039921-.0204777-.0680686-.0253722-.3091768-.0051063-.2519133-.0065085-.2675362-.0276503-.3104998-.0276634-.0561603-.0813024-.0850646-.1712537-.0922847l-.062079-.00497v-.1179256-.1179163l.065111-.00659c.089414-.00902.1423944-.036151.16869-.086329.018414-.035132.021298-.0581.023811-.1894879.00693-.3614137.00918-.399353.026404-.4388825.022436-.051565.058465-.088544.1137071-.1167284.090412-.046136.1420054-.053951.390437-.059171l.2335362-.00492.0028.6643281c.0027.6423027.00344.6655849.022092.7022887.034402.067693.05815.077786.1830191.077786h.1092225l.00577.042342c.0032.023282.00577.067333.00577.097872v.055533l-.084078.011906c-.047247.00672-.122242.00963-.1712113.00667-.1541916-.0093408-.2486432-.0616252-.2996788-.1659426-.0478079-.0977112-.0520119-.1568797-.052377-.7365744l-.0005292-.5338341-.050644.00672c-.072479.0096-.1090665.029571-.1294305.07059-.015133.030492-.018255.069021-.022462.2765712-.00452.2255118-.00627.2440106-.02665.2853629-.028267.057359-.052573.079324-.1368437.1236681l-.069288.036461.056089.020531c.072045.026378.1209193.067222.1492653.1247793.021404.043458.022806.058555.027391.2917973.00521.2658376.00849.283405.059886.3214397.015927.0118.047022.02106.07958.023758l.053462.00442v.1097284.1097332l-.0795788-.0005291c-.0437705-.0005292-.1064154-.0066143-.1392169-.0137312zm.8691981-.096428v-.1109264l.045813-.0000185c.063034-.0000185.1090665-.025161.13251-.072328.017171-.034513.01971-.064547.024155-.2845533.00471-.2309514.0063-.2484368.026555-.2864027.025901-.048543.065344-.080112.1457015-.1165908l.059994-.027235-.055229-.022885c-.0657376-.0272459-.1222895-.0758501-.1510219-.1297933-.0194194-.036434-.0212714-.0568192-.0259543-.2852148-.0046035-.2244323-.0067466-.2489289-.024658-.2797275-.0230705-.0397491-.0685157-.0647377-.1320867-.0726404l-.04581-.00569v-.1117131-.1117122l.096005.00661c.2123282.014631.3182887.070318.3639852.1913161.012329.032637.016747.09702.021324.3112325.00529.2471219.00746.2729493.02524.3038405.025108.043559.092658.077355.1683593.084221l.058155.00526v.1179137.1179111l-.061872.00495c-.080035.0064-.1369733.037431-.1639992.089308-.018441.035426-.020584.060293-.025901.3038431-.00622.2848629-.011218.3156721-.06182.3820105-.048432.063494-.190734.1094421-.3399093.109757l-.079572.0001719z" fill="#234db8" stroke-width=".009646"/><path d="m2.1167101.26457027v3.70398443h.7683915c.7428341 0 .8190304-.076236.8190304-.8205807v-1.0314115-1.0582813l-.7937109-.79371093z" fill="#fff" opacity=".2"/><path d="m.52928821 2.1165625v1.0314115c-.003651.7443342.0761989.8205807.81903029.8205807h1.5367831c.7428341 0 .8190304-.076236.8190304-.8205807v-1.0314115z" fill="#fff" opacity=".2"/><path d="m1.3483185.26457027c-.74283139 0-.82267079.076246-.81903029.82058073v1.0314115 1.0314115c-.003651.7443342.0761989.8205807.81903029.8205807h1.5367831c.7428341 0 .8190304-.076236.8190304-.8205807v-1.0314115-1.0582813l-.7937109-.79371093zm0 .2645703h1.5621026l.5291406.52914063v1.0582813 1.0314115c0 .1815667-.00582.3159975-.019631.3984058-.013811.082406-.029841.09959-.034103.1038651-.00426.00426-.021245.020293-.1033491.034103-.082112.013816-.2161962.019636-.3973767.019636h-1.5367834c-.1811777 0-.3153969-.0063-.39788727-.02016-.082493-.013837-.10001551-.029235-.10438092-.033587-.004365-.00437-.0199486-.021324-.0335898-.1033491-.0136254-.08203-.0194988-.216564-.0185993-.3978899v-.0005292-1.0319062-1.0319274-.0005291c-.00079371-.18132863.004974-.31585993.0185993-.39789003.0136254-.08203.0292218-.098992.0335898-.1033491.004365-.00436.02188-.019737.10438092-.033587.0824904-.013837.21670957-.02016.39788727-.02016z" fill="url(#a)" opacity=".4"/><path d="m3.704132 1.3228516v-.2645704l-.7937109-.79371093h-.2645704v.4049434.01553.00833c0 .54761033.073304.63205063.6221715.62936523z" opacity=".2"/><path d="m3.704132 1.0581807-.7937109-.79361043v.2943848.012832.00688c0 .45177763.020822.48176403.4736364.47954953z" fill="#faf8f6"/></svg>

<?xml version="1.0" encoding="UTF-8" standalone="no"?>
<svg
   xmlns:dc="http://purl.org/dc/elements/1.1/"
   xmlns:cc="http://creativecommons.org/ns#"
   xmlns:rdf="http://www.w3.org/1999/02/22-rdf-syntax-ns#"
   xmlns:svg="http://www.w3.org/2000/svg"
   xmlns="http://www.w3.org/2000/svg"
   xmlns:xlink="http://www.w3.org/1999/xlink"
   xmlns:sodipodi="http://sodipodi.sourceforge.net/DTD/sodipodi-0.dtd"
   xmlns:inkscape="http://www.inkscape.org/namespaces/inkscape"
   height="16"
   viewBox="0 0 4.233125 4.233125"
   width="16"
   version="1.1"
   id="svg33"
   sodipodi:docname="text-less.svg"
   inkscape:version="0.92.5 (2060ec1f9f, 2020-04-08)">
  <metadata
     id="metadata39">
    <rdf:RDF>
      <cc:Work
         rdf:about="">
        <dc:format>image/svg+xml</dc:format>
        <dc:type
           rdf:resource="http://purl.org/dc/dcmitype/StillImage" />
      </cc:Work>
    </rdf:RDF>
  </metadata>
  <defs
     id="defs37">
    <linearGradient
       gradientTransform="matrix(0.26457031,0,0,0.26457031,-84.662351,-62.438593)"
       inkscape:collect="always"
       xlink:href="#linearGradient927"
       id="linearGradient993"
       x1="328"
       y1="237"
       x2="328"
       y2="251"
       gradientUnits="userSpaceOnUse" />
    <linearGradient
       inkscape:collect="always"
       id="linearGradient927">
      <stop
         style="stop-color:#ffffff;stop-opacity:1;"
         offset="0"
         id="stop923" />
      <stop
         id="stop933"
         offset="0.125"
         style="stop-color:#ffffff;stop-opacity:0.09803922" />
      <stop
         id="stop931"
         offset="0.92500001"
         style="stop-color:#ffffff;stop-opacity:0.09803922" />
      <stop
         style="stop-color:#ffffff;stop-opacity:0.49803922"
         offset="1"
         id="stop925" />
    </linearGradient>
    <linearGradient
       inkscape:collect="always"
       xlink:href="#linearGradient4338"
       id="linearGradient920"
       gradientUnits="userSpaceOnUse"
       gradientTransform="matrix(0,-0.00953618,0.00953591,0,-0.94298469,4.4736432)"
       x1="459.03448"
       y1="419.23337"
       x2="35.310345"
       y2="207.36522" />
    <linearGradient
       inkscape:collect="always"
       id="linearGradient4338">
      <stop
         style="stop-color:#f2f2f2;stop-opacity:1"
         offset="0"
         id="stop4340" />
      <stop
         style="stop-color:#f9f9f9;stop-opacity:1"
         offset="1"
         id="stop4342" />
    </linearGradient>
  </defs>
  <sodipodi:namedview
     pagecolor="#ffffff"
     bordercolor="#666666"
     borderopacity="1"
     objecttolerance="10"
     gridtolerance="10"
     guidetolerance="10"
     inkscape:pageopacity="0"
     inkscape:pageshadow="2"
     inkscape:window-width="834"
     inkscape:window-height="480"
     id="namedview35"
     showgrid="false"
     inkscape:zoom="14.75"
     inkscape:cx="8"
     inkscape:cy="8"
     inkscape:window-x="0"
     inkscape:window-y="28"
     inkscape:window-maximized="0"
     inkscape:current-layer="svg33" />
  <linearGradient
     id="a"
     gradientUnits="userSpaceOnUse"
     x1="328"
     x2="328"
     y1="237"
     y2="251">
    <stop
       offset="0"
       stop-color="#fff"
       id="stop2" />
    <stop
       offset=".125"
       stop-color="#fff"
       stop-opacity=".098039"
       id="stop4" />
    <stop
       offset=".92500001"
       stop-color="#fff"
       stop-opacity=".098039"
       id="stop6" />
    <stop
       offset="1"
       stop-color="#fff"
       stop-opacity=".498039"
       id="stop8" />
  </linearGradient>
  <clipPath
     id="b">
    <path
       d="m325.09646 237c-2.80769 0-3.10979.28839-3.09603 3.10176v3.89824 3.89824c-.0138 2.81337.28834 3.10176 3.09603 3.10176h5.8075c2.8077 0 3.09604-.28835 3.09604-3.10176v-3.89824-3.89824c0-2.8134-.28835-3.10176-3.09604-3.10176z"
       id="path11" />
  </clipPath>
  <linearGradient
     id="c"
     gradientTransform="matrix(0 -.00953618 .00953591 0 -.942983 4.473639)"
     gradientUnits="userSpaceOnUse"
     x1="459.03448"
     x2="35.310345"
     y1="419.23337"
     y2="207.36522">
    <stop
       offset="0"
       stop-color="#f2f2f2"
       id="stop14" />
    <stop
       offset="1"
       stop-color="#f9f9f9"
       id="stop16" />
  </linearGradient>
  <path
     style="color:#000000;font-style:normal;font-variant:normal;font-weight:normal;font-stretch:normal;font-size:medium;line-height:normal;font-family:sans-serif;font-variant-ligatures:normal;font-variant-position:normal;font-variant-caps:normal;font-variant-numeric:normal;font-variant-alternates:normal;font-feature-settings:normal;text-indent:0;text-align:start;text-decoration:none;text-decoration-line:none;text-decoration-style:solid;text-decoration-color:#000000;letter-spacing:normal;word-spacing:normal;text-transform:none;writing-mode:lr-tb;direction:ltr;text-orientation:mixed;dominant-baseline:auto;baseline-shift:baseline;text-anchor:start;white-space:normal;shape-padding:0;clip-rule:nonzero;display:inline;overflow:visible;visibility:visible;opacity:0.1;isolation:auto;mix-blend-mode:normal;color-interpolation:sRGB;color-interpolation-filters:linearRGB;solid-color:#000000;solid-opacity:1;vector-effect:none;fill:#000000;fill-opacity:1;fill-rule:nonzero;stroke:none;stroke-width:0.52914065;stroke-linecap:butt;stroke-linejoin:miter;stroke-miterlimit:4;stroke-dasharray:none;stroke-dashoffset:0;stroke-opacity:1;marker:none;color-rendering:auto;image-rendering:auto;shape-rendering:auto;text-rendering:auto;enable-background:accumulate"
     d="m 1.3483185,0.26457027 c -0.1902366,0 -0.3444308,0.00368 -0.48573255,0.027388 -0.14130436,0.0237323 -0.28264046,0.0730958 -0.39065659,0.180858 C 0.36391588,0.58057577 0.31409464,0.72236687 0.29055582,0.86398607 0.26700907,1.0056079 0.26378395,1.1604318 0.2647073,1.3512717 V 2.1165625 3.147974 c -7.9371e-4,0.1900038 0.002381,0.3445631 0.0258485,0.4857352 0.0235468,0.1416192 0.0733574,0.2834104 0.18137354,0.3911699 0.10801613,0.1077621 0.24935223,0.1571389 0.39065659,0.1808576 0.14130177,0.023732 0.29549597,0.027388 0.48573257,0.027388 h 1.5367831 c 0.1902367,0 0.3440949,-0.00362 0.4852167,-0.027388 C 3.5114428,4.1819783 3.6527948,4.1322073 3.7604564,4.0243631 3.868118,3.916519 3.9176217,3.7749501 3.941314,3.6337092 3.9650089,3.4924657 3.9687023,3.3385784 3.9687023,3.147974 V 2.1165625 1.3228516 L 2.9104211,0.26457027 Z"
     id="path997"
     inkscape:connector-curvature="0"
     sodipodi:nodetypes="scscccccccsscscscccs" />
  <path
     sodipodi:nodetypes="scccssscccs"
     inkscape:connector-curvature="0"
     id="path928"
     d="m 1.3485196,0.26457027 c -0.74283142,0 -0.82275812,0.076299 -0.81911762,0.82063363 v 1.0313586 1.0313586 c -0.003651,0.7443342 0.0762862,0.8206336 0.81911762,0.8206336 h 1.5364921 c 0.7428341,0 0.8191203,-0.076289 0.8191203,-0.8206336 V 2.1165625 1.0582812 L 2.9104211,0.26457027 Z"
     style="color:#000000;display:inline;overflow:visible;visibility:visible;opacity:0.2;fill:none;fill-opacity:1;fill-rule:nonzero;stroke:#000000;stroke-width:0.52914065;stroke-miterlimit:4;stroke-dasharray:none;stroke-opacity:1;marker:none;enable-background:accumulate" />
  <path
     style="color:#000000;display:inline;overflow:visible;visibility:visible;fill:url(#linearGradient920);fill-opacity:1;fill-rule:nonzero;stroke:none;stroke-width:0.26457033;marker:none;enable-background:accumulate"
     d="m 1.3485196,0.26457027 c -0.74283142,0 -0.82275812,0.076299 -0.81911762,0.82063363 v 1.0313586 1.0313586 c -0.003651,0.7443342 0.0762862,0.8206336 0.81911762,0.8206336 h 1.5364921 c 0.7428341,0 0.8191203,-0.076289 0.8191203,-0.8206336 V 2.1165625 1.0582812 L 2.9104211,0.26457027 Z"
     id="path918"
     inkscape:connector-curvature="0"
     sodipodi:nodetypes="scccssscccs" />
  <path
     sodipodi:nodetypes="cccccccccccccccccsccscccccccccccccccccccccccccccccccccscccccccccccccccccccc"
     inkscape:connector-curvature="0"
     id="path1085"
     d="M 1.572653,3.645308 C 1.4512337,3.6189039 1.3834508,3.5717468 1.3447203,3.4866954 1.3265444,3.4467744 1.3242426,3.4186268 1.3193481,3.1775186 1.3142418,2.9256053 1.3128396,2.9099824 1.2916978,2.8670188 1.2640344,2.8108585 1.2103954,2.7819542 1.1204441,2.7747341 l -0.062079,-0.00497 V 2.6518385 2.5339222 l 0.065111,-0.00659 c 0.089414,-0.00902 0.1423944,-0.036151 0.16869,-0.086329 0.018414,-0.035132 0.021298,-0.0581 0.023811,-0.1894879 0.00693,-0.3614137 0.00918,-0.399353 0.026404,-0.4388825 0.022436,-0.051565 0.058465,-0.088544 0.1137071,-0.1167284 0.090412,-0.046136 0.1420054,-0.053951 0.390437,-0.059171 l 0.2335362,-0.00492 0.0028,0.6643281 c 0.0027,0.6423027 0.00344,0.6655849 0.022092,0.7022887 0.034402,0.067693 0.05815,0.077786 0.1830191,0.077786 H 2.397195 l 0.00577,0.042342 c 0.0032,0.023282 0.00577,0.067333 0.00577,0.097872 v 0.055533 L 2.324657,3.2838692 C 2.27741,3.2905892 2.202415,3.2934992 2.1534457,3.2905392 1.9992541,3.2811984 1.9048025,3.228914 1.8537669,3.1245966 1.805959,3.0268854 1.801755,2.9677169 1.8013899,2.3880222 l -5.292e-4,-0.5338341 -0.050644,0.00672 c -0.072479,0.0096 -0.1090665,0.029571 -0.1294305,0.07059 -0.015133,0.030492 -0.018255,0.069021 -0.022462,0.2765712 -0.00452,0.2255118 -0.00627,0.2440106 -0.02665,0.2853629 -0.028267,0.057359 -0.052573,0.079324 -0.1368437,0.1236681 l -0.069288,0.036461 0.056089,0.020531 c 0.072045,0.026378 0.1209193,0.067222 0.1492653,0.1247793 0.021404,0.043458 0.022806,0.058555 0.027391,0.2917973 0.00521,0.2658376 0.00849,0.283405 0.059886,0.3214397 0.015927,0.0118 0.047022,0.02106 0.07958,0.023758 l 0.053462,0.00442 V 3.550015 3.6597482 L 1.711637,3.6592191 C 1.6678665,3.6586899 1.6052216,3.6526048 1.5724201,3.6454879 Z M 2.4418511,3.54888 V 3.4379536 l 0.045813,-1.85e-5 c 0.063034,-1.85e-5 0.1090665,-0.025161 0.13251,-0.072328 0.017171,-0.034513 0.01971,-0.064547 0.024155,-0.2845533 0.00471,-0.2309514 0.0063,-0.2484368 0.026555,-0.2864027 0.025901,-0.048543 0.065344,-0.080112 0.1457015,-0.1165908 l 0.059994,-0.027235 -0.055229,-0.022885 C 2.755613,2.6006944 2.6990611,2.5520902 2.6703287,2.498147 2.6509093,2.461713 2.6490573,2.4413278 2.6443744,2.2129322 2.6397709,1.9884999 2.6376278,1.9640033 2.6197164,1.9332047 2.5966459,1.8934556 2.5512007,1.868467 2.4876297,1.8605643 l -0.04581,-0.00569 V 1.7431612 1.631449 l 0.096005,0.00661 c 0.2123282,0.014631 0.3182887,0.070318 0.3639852,0.1913161 0.012329,0.032637 0.016747,0.09702 0.021324,0.3112325 0.00529,0.2471219 0.00746,0.2729493 0.02524,0.3038405 0.025108,0.043559 0.092658,0.077355 0.1683593,0.084221 l 0.058155,0.00526 v 0.1179137 0.1179111 l -0.061872,0.00495 C 3.0329812,2.7811039 2.9760429,2.8121349 2.949017,2.8640119 2.930576,2.8994379 2.928433,2.9243049 2.923116,3.167855 2.916896,3.4527179 2.911898,3.4835271 2.861296,3.5498655 2.812864,3.6133595 2.670562,3.6593076 2.5213867,3.6596225 l -0.079572,1.719e-4 z"
     style="display:inline;fill:#234db8;stroke-width:0.00964579;enable-background:new" />
  <path
     style="color:#000000;display:inline;overflow:visible;visibility:visible;opacity:0.2;fill:#ffffff;fill-opacity:1;fill-rule:nonzero;stroke:none;stroke-width:0.26457033;marker:none;enable-background:accumulate"
     d="M 2.1167101,0.26457027 V 3.9685547 h 0.7683915 c 0.7428341,0 0.8190304,-0.076236 0.8190304,-0.8205807 V 2.1165625 1.0582812 L 2.9104211,0.26457027 Z"
     id="path1009"
     inkscape:connector-curvature="0"
     sodipodi:nodetypes="ccsscccc" />
  <path
     style="color:#000000;display:inline;overflow:visible;visibility:visible;opacity:0.2;fill:#ffffff;fill-opacity:1;fill-rule:nonzero;stroke:none;stroke-width:0.26457033;marker:none;enable-background:accumulate"
     d="M 0.52928821,2.1165625 V 3.147974 c -0.003651,0.7443342 0.0761989,0.8205807 0.81903029,0.8205807 h 1.5367831 c 0.7428341,0 0.8190304,-0.076236 0.8190304,-0.8205807 V 2.1165625 Z"
     id="path1016"
     inkscape:connector-curvature="0" />
  <path
     style="color:#000000;font-style:normal;font-variant:normal;font-weight:normal;font-stretch:normal;font-size:medium;line-height:normal;font-family:sans-serif;font-variant-ligatures:normal;font-variant-position:normal;font-variant-caps:normal;font-variant-numeric:normal;font-variant-alternates:normal;font-feature-settings:normal;text-indent:0;text-align:start;text-decoration:none;text-decoration-line:none;text-decoration-style:solid;text-decoration-color:#000000;letter-spacing:normal;word-spacing:normal;text-transform:none;writing-mode:lr-tb;direction:ltr;text-orientation:mixed;dominant-baseline:auto;baseline-shift:baseline;text-anchor:start;white-space:normal;shape-padding:0;clip-rule:nonzero;display:inline;overflow:visible;visibility:visible;opacity:0.4;isolation:auto;mix-blend-mode:normal;color-interpolation:sRGB;color-interpolation-filters:linearRGB;solid-color:#000000;solid-opacity:1;vector-effect:none;fill:url(#linearGradient993);fill-opacity:1;fill-rule:nonzero;stroke:none;stroke-width:0.52914065;stroke-linecap:butt;stroke-linejoin:miter;stroke-miterlimit:4;stroke-dasharray:none;stroke-dashoffset:0;stroke-opacity:1;marker:none;color-rendering:auto;image-rendering:auto;shape-rendering:auto;text-rendering:auto;enable-background:accumulate"
     clip-path="none"
     d="m 1.3483185,0.26457027 c -0.74283139,0 -0.82267079,0.076246 -0.81903029,0.82058073 V 2.1165625 3.147974 c -0.003651,0.7443342 0.0761989,0.8205807 0.81903029,0.8205807 h 1.5367831 c 0.7428341,0 0.8190304,-0.076236 0.8190304,-0.8205807 V 2.1165625 1.0582812 L 2.9104211,0.26457027 Z m 0,0.2645703 H 2.9104211 L 3.4395617,1.0582812 V 2.1165625 3.147974 c 0,0.1815667 -0.00582,0.3159975 -0.019631,0.3984058 -0.013811,0.082406 -0.029841,0.09959 -0.034103,0.1038651 -0.00426,0.00426 -0.021245,0.020293 -0.1033491,0.034103 -0.082112,0.013816 -0.2161962,0.019636 -0.3973767,0.019636 H 1.3483185 c -0.1811777,0 -0.3153969,-0.0063 -0.39788727,-0.02016 -0.082493,-0.013837 -0.10001551,-0.029235 -0.10438092,-0.033587 -0.004365,-0.00437 -0.0199486,-0.021324 -0.0335898,-0.1033491 -0.0136254,-0.08203 -0.0194988,-0.216564 -0.0185993,-0.3978899 V 3.1484687 2.1165625 1.0846351 1.084106 c -7.9371e-4,-0.18132863 0.004974,-0.31585993 0.0185993,-0.39789003 0.0136254,-0.08203 0.0292218,-0.098992 0.0335898,-0.1033491 0.004365,-0.00436 0.02188,-0.019737 0.10438092,-0.033587 0.0824904,-0.013837 0.21670957,-0.02016 0.39788727,-0.02016 z"
     id="path937"
     inkscape:connector-curvature="0"
     sodipodi:nodetypes="scccssscccsscccscccssccccccccsccs" />
  <path
     inkscape:connector-curvature="0"
     style="color:#000000;display:inline;overflow:visible;visibility:visible;opacity:0.2;fill:#000000;fill-opacity:1;fill-rule:nonzero;stroke:none;stroke-width:0.06614863;marker:none;enable-background:accumulate"
     d="M 3.704132,1.3228516 V 1.0582812 L 2.9104211,0.26457027 H 2.6458507 v 0.4049434 0.01553 0.00833 c 0,0.54761033 0.073304,0.63205063 0.6221715,0.62936523 z"
     id="rect4158-0-3-62-2-3-7-3"
     sodipodi:nodetypes="ccccccscc" />
  <path
     inkscape:connector-curvature="0"
     style="color:#000000;display:inline;overflow:visible;visibility:visible;fill:#faf8f6;fill-opacity:1;fill-rule:nonzero;stroke:none;stroke-width:0.06614863;marker:none;enable-background:accumulate"
     d="M 3.704132,1.0581807 2.9104211,0.26457027 v 0.2943848 0.012832 0.00688 c 0,0.45177763 0.020822,0.48176403 0.4736364,0.47954953 z"
     id="rect4158-0-3-62-6-5-5"
     sodipodi:nodetypes="ccccscc" />
</svg>
